packages/merlin-www-assets/imports/tatler/icons/contact.svg

<svg viewBox="0 0 11.33 20" xmlns="http://www.w3.org/2000/svg"><title>Contact</title><path d="m9.87 0h-8.42a1.46 1.46 0 0 0 -1.45 1.46v17.08a1.46 1.46 0 0 0 1.45 1.46h8.42a1.46 1.46 0 0 0 1.46-1.46v-17.08a1.46 1.46 0 0 0 -1.46-1.46zm-6.29.89h4.15c.11 0 .19.16.19.35s-.09.35-.19.35h-4.15c-.11 0-.19-.16-.19-.35s.08-.35.19-.35zm2.08 17.67a.93.93 0 1 1 .92-.93.93.93 0 0 1 -.92.93zm4.57-3.18h-9.14v-12.92h9.14zm0 0"/></svg>

<svg viewBox="0 0 11.33 20"><title>Contact</title><path d="M9.87 0H1.45A1.46 1.46 0 000 1.46v17.08A1.46 1.46 0 001.45 20h8.42a1.46 1.46 0 001.46-1.46V1.46A1.46 1.46 0 009.87 0zM3.58.89h4.15c.11 0 .19.16.19.35s-.09.35-.19.35H3.58c-.11 0-.19-.16-.19-.35s.08-.35.19-.35zm2.08 17.67a.93.93 0 11.92-.93.93.93 0 01-.92.93zm4.57-3.18H1.09V2.46h9.14zm0 0"/></svg>
